packages/core/src/svgs/gafi.svg

<svg width="24" height="24" viewBox="0 0 24 24" fill="none" xmlns="http://www.w3.org/2000/svg">
<g clip-path="url(#clip0_31_10597)">
<path d="M0 0H24V24H0V0Z" fill="url(#paint0_linear_31_10597)"/>
<path d="M5.14289 8.57129C4.8019 8.57129 4.47487 8.70675 4.23375 8.94787C3.99264 9.18898 3.85718 9.51601 3.85718 9.857V14.1427C3.85718 14.4837 3.99264 14.8107 4.23375 15.0519C4.47487 15.293 4.8019 15.4284 5.14289 15.4284H10.7143C11.0553 15.4284 11.3823 15.293 11.6235 15.0519C11.8646 14.8107 12 14.4837 12 14.1427V12.4284C12 12.0874 11.8646 11.7604 11.6235 11.5193C11.3823 11.2782 11.0553 11.1427 10.7143 11.1427H6.85718V12.857H9.85718V13.2856H6.00004V10.7141H12V8.57129H5.14289ZM14.5715 10.2856H19.7143V8.99986H14.1429C13.9156 8.99986 13.6975 9.09017 13.5368 9.25091C13.3761 9.41166 13.2857 9.62967 13.2857 9.857V14.9999H14.5715V12.857H19.7143V11.5713H14.5715V10.2856ZM15 15.257C15 15.3025 14.982 15.3461 14.9498 15.3782C14.9177 15.4104 14.8741 15.4284 14.8286 15.4284H13.0286C12.9831 15.4284 12.9395 15.4104 12.9074 15.3782C12.8752 15.3461 12.8572 15.3025 12.8572 15.257V9.857C12.8572 9.51601 12.9926 9.18898 13.2338 8.94787C13.4749 8.70675 13.8019 8.57129 14.1429 8.57129H19.9715C20.0657 8.57129 20.1429 8.64843 20.1429 8.74272V10.5427C20.1429 10.5882 20.1248 10.6318 20.0927 10.6639C20.0605 10.6961 20.0169 10.7141 19.9715 10.7141H15V11.1427H19.9715C20.0657 11.1427 20.1429 11.2199 20.1429 11.3141V13.1141C20.1429 13.1596 20.1248 13.2032 20.0927 13.2354C20.0605 13.2675 20.0169 13.2856 19.9715 13.2856H15V15.257Z" fill="#72F34B"/>
</g>
<defs>
<linearGradient id="paint0_linear_31_10597" x1="4.46571" y1="4.16143" x2="29.2071" y2="32.58" gradientUnits="userSpaceOnUse">
<stop stop-color="#1A1E21"/>
<stop offset="1" stop-color="#06060A"/>
</linearGradient>
<clipPath id="clip0_31_10597">
<rect width="24" height="24" fill="white"/>
</clipPath>
</defs>
</svg>

<svg xmlns="http://www.w3.org/2000/svg" width="24" height="24" fill="none" viewBox="0 0 24 24"><g clip-path="url(#a)"><path fill="url(#b)" d="M0 0h24v24H0z"/><path fill="#72F34B" d="M5.143 8.571a1.286 1.286 0 0 0-1.286 1.286v4.286a1.286 1.286 0 0 0 1.286 1.285h5.571A1.286 1.286 0 0 0 12 14.143v-1.715a1.286 1.286 0 0 0-1.286-1.285H6.857v1.714h3v.429H6v-2.572h6V8.571zm9.429 1.715h5.142V9h-5.571a.857.857 0 0 0-.857.857V15h1.286v-2.143h5.142v-1.286h-5.142zM15 15.257a.17.17 0 0 1-.171.171h-1.8a.17.17 0 0 1-.172-.171v-5.4a1.285 1.285 0 0 1 1.286-1.286h5.828c.095 0 .172.077.172.172v1.8a.17.17 0 0 1-.172.171H15v.429h4.971c.095 0 .172.077.172.171v1.8a.17.17 0 0 1-.172.172H15z"/></g><defs><linearGradient id="b" x1="4.466" x2="29.207" y1="4.161" y2="32.58" gradientUnits="userSpaceOnUse"><stop stop-color="#1A1E21"/><stop offset="1" stop-color="#06060A"/></linearGradient><clipPath id="a"><path fill="#fff" d="M0 0h24v24H0z"/></clipPath></defs></svg>
